icon/lg/cakephp-icon.svg

<?xml version="1.0" encoding="UTF-8"?>
<svg viewBox="0 0 256 200" version="1.1" xmlns="http://www.w3.org/2000/svg" xmlns:xlink="http://www.w3.org/1999/xlink" preserveAspectRatio="xMidYMid" height="1em" width="1em">
  <g stroke="none" stroke-width="1" fill="none" fill-rule="evenodd">
    <path d="M0,119.882843 C0,141.938825 57.2937323,159.841092 127.979753,159.841092 L127.979753,159.841092 L127.979753,199.783147 C57.2937323,199.783147 0,181.897074 0,159.841092 L0,159.841092 Z M255.999995,119.882843 L255.999995,159.832995 C255.999995,169.249701 245.530687,177.889104 228.09804,184.722895 L228.09804,184.722895 L127.971656,159.832995 L127.971656,119.882843 L228.09804,144.764647 C245.530687,137.938952 256.008088,129.299549 255.999995,119.882843 L255.999995,119.882843 Z M127.979753,0 C198.673871,0 256,17.9184609 256,39.9582488 L256,39.9582488 L256,79.9407884 C256,89.3251066 245.530687,97.9968968 228.106137,104.798301 L228.106137,104.798301 L127.979753,79.9407884 L127.979753,119.882843 C57.2937323,119.882843 0,101.988673 0,79.9407884 L0,79.9407884 L0,39.9582488 C0,17.9184609 57.2937323,0 127.979753,0 Z" fill="#D33C44"/>
  </g>
</svg>

<svg width="256" height="200" xmlns="http://www.w3.org/2000/svg" preserveAspectRatio="xMidYMid"><path d="M0 119.883c0 22.056 57.294 39.958 127.98 39.958v39.942C57.294 199.783 0 181.897 0 159.841Zm256 0v39.95c0 9.417-10.47 18.056-27.902 24.89l-100.126-24.89v-39.95l100.126 24.882c17.433-6.826 27.91-15.465 27.902-24.882ZM127.98 0C198.674 0 256 17.918 256 39.958v39.983c0 9.384-10.47 18.056-27.894 24.857L127.98 79.941v39.942C57.294 119.883 0 101.989 0 79.94V39.958C0 17.918 57.294 0 127.98 0Z" fill="#D33C44" fill-rule="evenodd"/></svg>
